X: 2345
T: AMERICAN HORNPIPE
%R: hornpipe, reel
B: James Kerr "Merry Melodies" v.2 p.38 #345
Z: 2016 John Chambers <jc:trillian.mit.edu>
M: C
L: 1/8
K: A
|:\
vA2 (3(ABc) B2 (3(Bcd) | ve>vcud>uB vc>vA (3(GFE) |\
A2 (3(ABc) B2 (3(Bcd) |[1 ve>vc (3(dcB) A2E2 :|[2 (3efe (3dcB A2A,2 |:\
va2 (3(fga) g2e2 |
vf2ug>ua vb>ge2 |\
a2 (3(fga) g2e2 | f>ef>g a2 (3(efg) |\
a2 (3(fga) g2e2 | f>fg.a b>g (3(efg) |\
a2 (3(cde) f2 (3(Bcd) | (3efe (3dcB | A2A,2 :|
